icons/x-layer.svg

<svg width="63" height="50" viewBox="0 0 63 50" fill="none" xmlns="http://www.w3.org/2000/svg">
<mask id="mask0_11375_9124" style="mask-type:alpha" maskUnits="userSpaceOnUse" x="51" y="32" width="7" height="18">
<rect width="5.54422" height="16.3218" transform="matrix(-1 0 0 1 57.3105 32.9375)" fill="black"/>
</mask>
<g mask="url(#mask0_11375_9124)">
<path d="M56.2181 32.9375H42.0725C41.4715 32.9375 40.9844 33.4247 40.9844 34.0256V48.171C40.9844 48.772 41.4715 49.2591 42.0725 49.2591H56.2181C56.819 49.2591 57.3062 48.772 57.3062 48.171V34.0256C57.3062 33.4247 56.819 32.9375 56.2181 32.9375Z" fill="black" fill-opacity="0.5"/>
</g>
<mask id="mask1_11375_9124" style="mask-type:alpha" maskUnits="userSpaceOnUse" x="51" y="0" width="7" height="17">
<rect width="5.54422" height="16.3218" transform="matrix(-1 0 0 1 57.3105 0.257812)" fill="url(#paint0_linear_11375_9124)"/>
</mask>
<g mask="url(#mask1_11375_9124)">
<path d="M56.2181 0.257812H42.0725C41.4715 0.257812 40.9844 0.744976 40.9844 1.34592V15.4913C40.9844 16.0923 41.4715 16.5795 42.0725 16.5795H56.2181C56.819 16.5795 57.3062 16.0923 57.3062 15.4913V1.34592C57.3062 0.744976 56.819 0.257812 56.2181 0.257812Z" fill="black" fill-opacity="0.5"/>
</g>
<mask id="mask2_11375_9124" style="mask-type:alpha" maskUnits="userSpaceOnUse" x="60" y="0" width="3" height="17">
<rect width="2.75805" height="16.3218" transform="matrix(-1 0 0 1 62.8672 0.257812)" fill="black"/>
</mask>
<g mask="url(#mask2_11375_9124)">
<path d="M61.7747 0.257812H47.6291C47.0282 0.257812 46.541 0.744976 46.541 1.34592V15.4913C46.541 16.0923 47.0282 16.5795 47.6291 16.5795H61.7747C62.3757 16.5795 62.8629 16.0923 62.8629 15.4913V1.34592C62.8629 0.744976 62.3757 0.257812 61.7747 0.257812Z" fill="black" fill-opacity="0.3"/>
</g>
<mask id="mask3_11375_9124" style="mask-type:alpha" maskUnits="userSpaceOnUse" x="60" y="32" width="3" height="18">
<rect width="2.75805" height="16.3218" transform="matrix(-1 0 0 1 62.877 32.9375)" fill="black"/>
</mask>
<g mask="url(#mask3_11375_9124)">
<path d="M61.7845 32.9375H47.6389C47.038 32.9375 46.5508 33.4247 46.5508 34.0256V48.171C46.5508 48.772 47.038 49.2591 47.6389 49.2591H61.7845C62.3855 49.2591 62.8726 48.772 62.8726 48.171V34.0256C62.8726 33.4247 62.3855 32.9375 61.7845 32.9375Z" fill="black" fill-opacity="0.3"/>
</g>
<path d="M31.5287 16.6172H17.4502C16.852 16.6172 16.3672 17.0986 16.3672 17.6924V31.6702C16.3672 32.2641 16.852 32.7455 17.4502 32.7455H31.5287C32.1268 32.7455 32.6117 32.2641 32.6117 31.6702V17.6924C32.6117 17.0986 32.1268 16.6172 31.5287 16.6172Z" fill="black"/>
<path d="M15.2337 0.257812H1.08812C0.487169 0.257812 0 0.744976 0 1.34592V15.4913C0 16.0923 0.487169 16.5795 1.08812 16.5795H15.2337C15.8347 16.5795 16.3218 16.0923 16.3218 15.4913V1.34592C16.3218 0.744976 15.8347 0.257812 15.2337 0.257812Z" fill="black"/>
<path d="M47.8704 0.257812H33.7248C33.1239 0.257812 32.6367 0.744976 32.6367 1.34592V15.4913C32.6367 16.0923 33.1239 16.5795 33.7248 16.5795H47.8704C48.4714 16.5795 48.9586 16.0923 48.9586 15.4913V1.34592C48.9586 0.744976 48.4714 0.257812 47.8704 0.257812Z" fill="black"/>
<path d="M15.2337 32.9004H1.08812C0.487169 32.9004 0 33.3876 0 33.9885V48.1339C0 48.7349 0.487169 49.222 1.08812 49.222H15.2337C15.8347 49.222 16.3218 48.7349 16.3218 48.1339V33.9885C16.3218 33.3876 15.8347 32.9004 15.2337 32.9004Z" fill="black"/>
<path d="M47.8704 32.9004H33.7248C33.1239 32.9004 32.6367 33.3876 32.6367 33.9885V48.1339C32.6367 48.7349 33.1239 49.222 33.7248 49.222H47.8704C48.4714 49.222 48.9586 48.7349 48.9586 48.1339V33.9885C48.9586 33.3876 48.4714 32.9004 47.8704 32.9004Z" fill="black"/>
<defs>
<linearGradient id="paint0_linear_11375_9124" x1="6.01807" y1="9.10319" x2="0.0559558" y2="7.89601" gradientUnits="userSpaceOnUse">
<stop/>
<stop offset="1" stop-color="white"/>
</linearGradient>
</defs>
</svg>

<svg xmlns="http://www.w3.org/2000/svg" fill="none" viewBox="0 0 63 50">
  <mask id="x-layer_svg__a" width="7" height="18" x="51" y="32" maskUnits="userSpaceOnUse" style="mask-type:alpha">
    <path fill="#000" d="M57.31 32.938h-5.544V49.26h5.544z"/>
  </mask>
  <g mask="url(#x-layer_svg__a)">
    <path fill="#000" fill-opacity=".5" d="M56.218 32.938H42.072c-.6 0-1.088.487-1.088 1.088V48.17c0 .601.487 1.088 1.088 1.088h14.146c.601 0 1.088-.487 1.088-1.088V34.026c0-.601-.487-1.089-1.088-1.089"/>
  </g>
  <mask id="x-layer_svg__c" width="7" height="17" x="51" y="0" maskUnits="userSpaceOnUse" style="mask-type:alpha">
    <path fill="url(#x-layer_svg__b)" d="M0 0h5.544v16.322H0z" transform="matrix(-1 0 0 1 57.31 .258)"/>
  </mask>
  <g mask="url(#x-layer_svg__c)">
    <path fill="#000" fill-opacity=".5" d="M56.218.258H42.072c-.6 0-1.088.487-1.088 1.088V15.49c0 .601.487 1.088 1.088 1.088h14.146c.601 0 1.088-.487 1.088-1.088V1.346c0-.601-.487-1.088-1.088-1.088"/>
  </g>
  <mask id="x-layer_svg__d" width="3" height="17" x="60" y="0" maskUnits="userSpaceOnUse" style="mask-type:alpha">
    <path fill="#000" d="M62.867.258H60.11V16.58h2.758z"/>
  </mask>
  <g mask="url(#x-layer_svg__d)">
    <path fill="#000" fill-opacity=".3" d="M61.775.258H47.629c-.6 0-1.088.487-1.088 1.088V15.49c0 .601.487 1.088 1.088 1.088h14.146c.6 0 1.088-.487 1.088-1.088V1.346c0-.601-.487-1.088-1.088-1.088"/>
  </g>
  <mask id="x-layer_svg__e" width="3" height="18" x="60" y="32" maskUnits="userSpaceOnUse" style="mask-type:alpha">
    <path fill="#000" d="M62.877 32.938h-2.758V49.26h2.758z"/>
  </mask>
  <g mask="url(#x-layer_svg__e)">
    <path fill="#000" fill-opacity=".3" d="M61.785 32.938H47.639c-.601 0-1.088.487-1.088 1.088V48.17c0 .601.487 1.088 1.088 1.088h14.145c.602 0 1.089-.487 1.089-1.088V34.026c0-.601-.487-1.089-1.088-1.089"/>
  </g>
  <path fill="#000" d="M31.529 16.617H17.45a1.08 1.08 0 0 0-1.083 1.075V31.67a1.08 1.08 0 0 0 1.083 1.075h14.08a1.08 1.08 0 0 0 1.083-1.075V17.692a1.08 1.08 0 0 0-1.083-1.075"/>
  <path fill="#000" d="M15.234.258H1.088C.488.258 0 .745 0 1.346V15.49c0 .601.487 1.088 1.088 1.088h14.146c.6 0 1.088-.487 1.088-1.088V1.346c0-.601-.487-1.088-1.088-1.088"/>
  <path fill="#000" d="M47.87.258H33.725c-.601 0-1.088.487-1.088 1.088V15.49c0 .601.487 1.088 1.088 1.088H47.87c.601 0 1.089-.487 1.089-1.088V1.346c0-.601-.488-1.088-1.089-1.088"/>
  <path fill="#000" d="M15.234 32.9H1.088c-.6 0-1.088.488-1.088 1.09v14.145c0 .6.487 1.088 1.088 1.088h14.146c.6 0 1.088-.487 1.088-1.088V33.989c0-.601-.487-1.089-1.088-1.089"/>
  <path fill="#000" d="M47.87 32.9H33.725c-.601 0-1.088.488-1.088 1.089v14.145c0 .6.487 1.088 1.088 1.088H47.87c.601 0 1.089-.487 1.089-1.088V33.989A1.09 1.09 0 0 0 47.87 32.9"/>
  <defs>
    <linearGradient id="x-layer_svg__b" x1="6.018" x2=".056" y1="9.103" y2="7.896" gradientUnits="userSpaceOnUse">
      <stop/>
      <stop offset="1" stop-color="#fff"/>
    </linearGradient>
  </defs>
</svg>
